X:18
T:Peuple de lumire - T601
C:J.P. Kempf
M:C
K:A
C3B, C2D2|E4 E2CE|F3F E2D2|E8|F3E F2G2|A4 E2EE|A3A G2A2|
B6 AB|c4 A2G2|F6 F2|E4 A2G2|A6 zC||FF FG AA GF|E2C2 zC CC|
D4 F2F2|[M:2/4](E2D2)|[M:C]C4 zC DE|F2FA G2A2|B4 A2GF|E2C2 D2F2|E4 E4||
